X:1
T:Title
%%score { ( 1 3 ) | 2 }
L:1/8
M:4/4
K:A
V:1 treble nm="Grand Piano"
V:3 treble 
V:2 bass 
V:1
 z4 z2[Q:1/4=100] [CE]>[CE] | [CA]2 [CA]2 [Ec]2 [EA]2 | F>F F>F [CE]2 [EA]>B | c2 c2 B2 A2 | %4
 B6 E>E | [CA]2 [CA]2 [Ec]2 [EA]2 | F>F F>F F2 [Fd]>[Fd] | c2 A2 B2 G2 |[M:3/4] [CA]6 | %9
[M:1/4] E>E |[M:4/4] B6 z2 | c6 z2 | c2 c2 d>d d>c | B6 B2 | z2 [^Ec]2 z4 | z4 z2 B2 | %16
 [Ee]2 [=Ge]2 [Fe]>[Fd] [Fc]>[FB] |[M:7/8] [EA]2 [DG]2 [CA]3 |] %18
V:2
 z4 z2 [A,,A,]>[A,,A,] | [A,,A,]2 [A,,A,]2 [A,,A,]2 [C,A,]2 | %2
 [D,A,D]>[D,A,D] [D,A,D]>[D,A,D] [A,,A,]2 [C,A,]>[E,G,E] | [A,E]2 [A,E]2 [G,B,E]2 [F,B,^D]2 | %4
 [E,G,E]6 [E,G,]>[E,G,D] | [A,,A,]2 [A,,A,]2 [A,,A,]2 [C,A,]2 | %6
 [D,A,D]>[D,A,D] [D,A,D]>[D,A,D] [D,A,D]2 [D,A,]>[D,A,] | [E,A,E]2 [E,A,C]2 [E,G,D]2 [E,B,D]2 | %8
[M:3/4] [A,,A,]6 |[M:1/4] z2 |[M:4/4] z2 [E,G,]>[E,G,] [E,G,]2 z2 | %11
 z2 [A,,A,]>[A,,A,] [A,,A,]2 [A,E]2 | [A,E]2 [A,E]2 [G,B,E]>[G,B,E] [G,B,E]>[A,E] | %13
 [E,G,E]6 [E,G,E]2 | [C,G,]2 .[C,G,]2 [F,CF]2 [F,CF]2 | [B,,B,]2 [B,,B,]2 [E,G,E]2 .[E,G,E]2 | %16
 [C,A,]2 [C,A,]2 [D,A,]>[D,A,] [D,A,]>[D,D] |[M:7/8] [E,C]2 [E,B,]2 [A,,A,]3 |] %18
V:3
 x8 | x8 | x8 | x8 | x8 | x8 | x8 | x8 |[M:3/4] x6 |[M:1/4] x2 |[M:4/4] z2 E>E E2 A>B | %11
 z2 E>E E2 c2 | x8 | x8 | [^Ec]2 z C A2 A2 | [Fd]2 [Fd]2 B2 z D, | x8 |[M:7/8] x7 |] %18

